icons/plexis/48/8-ball-pool.svg

<svg viewBox="0 0 48 48" xmlns="http://www.w3.org/2000/svg" xmlns:xlink="http://www.w3.org/1999/xlink">
  <linearGradient id="a" gradientTransform="matrix(0 -1 1 0 -.0000015 47.999998)" gradientUnits="userSpaceOnUse" x1="1" x2="47">
    <stop offset="0" stop-color="#e1e1e1"/>
    <stop offset="1" stop-color="#ebebeb"/>
  </linearGradient>
  <path d="m47 24c0 22.703-.297 23-23 23-22.703 0-23-.297-23-23 0-22.703.297-23 23-23 22.703 0 23 .297 23 23z" fill="url(#a)"/>
  <path d="m39 24c-.004 8.285-6.719 14.996-15 14.996-8.281 0-14.996-6.711-15-14.996-.004-8.285 6.715-15 15-15 8.285 0 15 6.719 15 15m0 0" opacity=".1" transform="translate(1 1)"/>
  <g transform="translate(.00000179)">
    <path d="m39 24c-.004 8.285-6.719 14.996-15 14.996-8.281 0-14.996-6.711-15-14.996-.004-8.285 6.715-15 15-15 8.285 0 15 6.719 15 15m0 0" fill="#2d2d2d"/>
    <path d="m32 24c0 4.418-3.582 8-8 8-4.418 0-8-3.582-8-8 0-4.418 3.582-8 8-8 4.418 0 8 3.582 8 8m0 0" fill="#f9f9f9"/>
    <path d="m24 19c3 0 4 3 1 4.75 1.457.602 2 1.141 2 2.75 0 1.5-1 2.5-3 2.5-2 0-3-1-3-2.5 0-1 .727-2.191 2-2.75-3-1.75-2-4.75 1-4.75m-2 7.5c0 2.5 4 2.5 4 0 0-1.5-1-2.223-2-2.285-1.371.078-2 .785-2 2.285m1.988-6.75c-2.988.25-1.988 3.25.059 3.613 1.953-.363 2.953-3.363-.047-3.613" fill="#2d2d2d"/>
  </g>
</svg>

<svg xmlns="http://www.w3.org/2000/svg" viewBox="0 0 48 48">
 <defs>
  <linearGradient id="linearGradient3764" x1="1" x2="47" gradientUnits="userSpaceOnUse" gradientTransform="matrix(0,-1,1,0,-1.5e-6,47.999998)">
   <stop style="stop-color:#e1e1e1;stop-opacity:1"/>
   <stop offset="1" style="stop-color:#ebebeb;stop-opacity:1"/>
  </linearGradient>
 </defs>
 <g>
  
  
  
 </g>
 <g>
  <path d="m 47,24 C 47,46.703 46.703,47 24,47 1.297,47 1,46.703 1,24 1,1.297 1.297,1 24,1 46.703,1 47,1.297 47,24 z" style="fill:url(#linearGradient3764);fill-opacity:1"/>
 </g>
 <g>
  <g>
   <g transform="translate(1,1)">
    <g style="opacity:0.1">
     <!-- color: #ebebeb -->
     <g>
      <path d="m 39 24 c -0.004 8.285 -6.719 14.996 -15 14.996 c -8.281 0 -14.996 -6.711 -15 -14.996 c -0.004 -8.285 6.715 -15 15 -15 c 8.285 0 15 6.719 15 15 m 0 0" style="fill:#000;fill-opacity:1;stroke:none;fill-rule:nonzero"/>
     </g>
    </g>
   </g>
  </g>
 </g>
 <g transform="translate(1.7850532e-6,0)">
  <g>
   <!-- color: #ebebeb -->
   <g>
    <path d="M 39,24 C 38.996,32.285 32.281,38.996 24,38.996 15.719,38.996 9.004,32.285 9,24 8.996,15.715 15.715,9 24,9 c 8.285,0 15,6.719 15,15 m 0,0" style="fill:#2d2d2d;fill-opacity:1;stroke:none;fill-rule:nonzero"/>
    <path d="m 32 24 c 0 4.418 -3.582 8 -8 8 -4.418 0 -8 -3.582 -8 -8 0 -4.418 3.582 -8 8 -8 4.418 0 8 3.582 8 8 m 0 0" style="fill:#f9f9f9;fill-opacity:1;stroke:none;fill-rule:nonzero"/>
    <path d="m 24,19 c 3,0 4,3 1,4.75 1.457,0.602 2,1.141 2,2.75 0,1.5 -1,2.5 -3,2.5 -2,0 -3,-1 -3,-2.5 0,-1 0.727,-2.191 2,-2.75 C 20,22 21,19 24,19 m -2,7.5 c 0,2.5 4,2.5 4,0 C 26,25 25,24.277 24,24.215 22.629,24.293 22,25 22,26.5 m 1.988,-6.75 C 21,20 22,23 24.047,23.363 26,23 27,20 24,19.75" style="fill:#2d2d2d;fill-opacity:1;stroke:none;fill-rule:nonzero"/>
   </g>
  </g>
 </g>
 <g>
  
 </g>
</svg>
